X: 27
T:Smiling Susan (#227)
M:4/4
L:1/8
S:Capt. F. O'Neill
R:Reel
K:G
AB|cABG AGEF|G2 Bc dBGB|cABG AGED|EAAB A2:|
AB|cdef g2 ef|gage dBGB|cdef gfed|eaab a3 B|
cdef g2 ef|gage dBGB|cABG AGED|EAAB A2||

